assets/icons/ubuntu-logo/_.svg

<?xml version="1.0" encoding="UTF-8" standalone="no"?>
<svg viewBox="0 0 24 24" height="24" id="svg7384" version="1.1" width="24" sodipodi:docname="ubuntu-logo.svg" inkscape:version="1.1.2 (76b9e6a115, 2022-02-25)"
   xmlns:inkscape="http://www.inkscape.org/namespaces/inkscape"
   xmlns:sodipodi="http://sodipodi.sourceforge.net/DTD/sodipodi-0.dtd"
   xmlns="http://www.w3.org/2000/svg"
   xmlns:svg="http://www.w3.org/2000/svg"
   xmlns:rdf="http://www.w3.org/1999/02/22-rdf-syntax-ns#"
   xmlns:cc="http://creativecommons.org/ns#"
   xmlns:dc="http://purl.org/dc/elements/1.1/">
   <sodipodi:namedview pagecolor="#ffffff" bordercolor="#666666" borderopacity="1" objecttolerance="10" gridtolerance="10" guidetolerance="10" inkscape:pageopacity="0" inkscape:pageshadow="2" inkscape:window-width="1920" inkscape:window-height="1043" id="namedview21" showgrid="true" inkscape:zoom="21.566754" inkscape:cx="20.842265" inkscape:cy="12.982946" inkscape:window-x="1920" inkscape:window-y="0" inkscape:window-maximized="1" inkscape:current-layer="svg7384" inkscape:pagecheckerboard="0" width="24px">
      <inkscape:grid type="xygrid" id="grid846" />
   </sodipodi:namedview>
   <metadata id="metadata20854">
      <rdf:RDF>
         <cc:Work rdf:about="">
            <dc:format>image/svg+xml</dc:format>
            <dc:type rdf:resource="http://purl.org/dc/dcmitype/StillImage" />
         </cc:Work>
      </rdf:RDF>
   </metadata>
   <defs id="defs7386">
      <linearGradient id="linearGradient5606" inkscape:swatch="solid">
         <stop id="stop5608" offset="0" style="stop-color:#000000;stop-opacity:1;" />
      </linearGradient>
      <linearGradient id="linearGradient4526" inkscape:swatch="solid">
         <stop id="stop4528" offset="0" style="stop-color:#ffffff;stop-opacity:1;" />
      </linearGradient>
      <linearGradient id="linearGradient3600-4" inkscape:swatch="gradient">
         <stop id="stop3602-7" offset="0" style="stop-color:#f4f4f4;stop-opacity:1" />
         <stop id="stop3604-6" offset="1" style="stop-color:#dbdbdb;stop-opacity:1" />
      </linearGradient>
   </defs>
   <path id="rect6" style="fill:#808080;stroke-width:1" class="cls-1" d="M 2 2 L 2 22 L 22 22 L 22 2 L 2 2 z M 15.1875 5.2070312 A 2.09375 2.09375 0 0 1 17.28125 7.3007812 A 2.09375 2.09375 0 0 1 15.1875 9.3945312 A 2.09375 2.09375 0 0 1 13.09375 7.3007812 A 2.09375 2.09375 0 0 1 15.1875 5.2070312 z M 12.150391 5.4257812 A 6.875 6.875 0 0 1 12.792969 5.4433594 A 2.89375 2.89375 0 0 0 12.21875 6.6621094 A 4.0125 4.0125 0 0 0 12.15625 7.1308594 A 5.075 5.075 0 0 0 8.0429688 9.3320312 A 3.025 3.025 0 0 0 7.09375 8.9375 A 2.90625 2.90625 0 0 0 6.46875 8.875 L 6.3125 8.875 A 6.875 6.875 0 0 1 12.150391 5.4257812 z M 17.96875 8.5 A 6.875 6.875 0 0 1 17.625 16.519531 A 2.8625 2.8625 0 0 0 16.625 14.96875 A 5.05 5.05 0 0 0 17.28125 13.34375 A 5.1375 5.1375 0 0 0 16.792969 9.875 A 3.03125 3.03125 0 0 0 17.96875 8.5 z M 6.4882812 9.7929688 A 2.09375 2.09375 0 0 1 8.5820312 11.886719 A 2.09375 2.09375 0 0 1 6.4882812 13.980469 A 2.09375 2.09375 0 0 1 4.3945312 11.886719 A 2.09375 2.09375 0 0 1 6.4882812 9.7929688 z M 7.7382812 14.605469 A 5.05 5.05 0 0 0 11.207031 17.261719 A 1.80625 1.80625 0 0 0 11.71875 17.34375 A 2.94375 2.94375 0 0 0 12.34375 19.09375 A 6.875 6.875 0 0 1 10.863281 18.9375 A 6.79375 6.79375 0 0 1 5.9570312 14.824219 A 3.01875 3.01875 0 0 0 7.7382812 14.605469 z M 14.71875 15.1875 A 2.09375 2.09375 0 0 1 16.8125 17.28125 A 2.09375 2.09375 0 0 1 14.71875 19.375 A 2.09375 2.09375 0 0 1 12.625 17.28125 A 2.09375 2.09375 0 0 1 14.71875 15.1875 z " />
</svg>

<svg height="24" width="24" xmlns="http://www.w3.org/2000/svg"><path style="fill:gray;stroke-width:1" class="cls-1" d="M2 2v20h20V2H2zm13.188 3.207a2.094 2.094 0 0 1 2.093 2.094 2.094 2.094 0 0 1-2.093 2.094A2.094 2.094 0 0 1 13.094 7.3a2.094 2.094 0 0 1 2.094-2.094zm-3.038.219a6.875 6.875 0 0 1 .643.017 2.894 2.894 0 0 0-.574 1.22 4.013 4.013 0 0 0-.063.468 5.075 5.075 0 0 0-4.113 2.201 3.025 3.025 0 0 0-.95-.395 2.906 2.906 0 0 0-.624-.062h-.157a6.875 6.875 0 0 1 5.838-3.45zM17.97 8.5a6.875 6.875 0 0 1-.344 8.02 2.862 2.862 0 0 0-1-1.551 5.05 5.05 0 0 0 .656-1.625 5.138 5.138 0 0 0-.488-3.469A3.031 3.031 0 0 0 17.969 8.5zM6.489 9.793a2.094 2.094 0 0 1 2.093 2.094 2.094 2.094 0 0 1-2.094 2.093 2.094 2.094 0 0 1-2.093-2.093 2.094 2.094 0 0 1 2.093-2.094zm1.25 4.812a5.05 5.05 0 0 0 3.468 2.657 1.806 1.806 0 0 0 .512.082 2.944 2.944 0 0 0 .625 1.75 6.875 6.875 0 0 1-1.48-.157 6.794 6.794 0 0 1-4.907-4.113 3.019 3.019 0 0 0 1.781-.219zm6.98.582a2.094 2.094 0 0 1 2.094 2.094 2.094 2.094 0 0 1-2.094 2.094 2.094 2.094 0 0 1-2.094-2.094 2.094 2.094 0 0 1 2.094-2.093z"/></svg>
